X: 986
T: Paddy O'Carroll
T: Paidin Ua Cearbaill
R:double jig
S:986 O'Neill's Music of Ireland
B:O'Neill's 986
Z:Transcribed by Robert Thorpe (thorpe@skep.com)
M:6/8
K:D
A/-G/|FDD FDD|F>GF FED|AFF dFF|E>FE DAG|
|FDD FDD|FGF FED|AFF dFF|D>ED D2:|
a/-g/|fdd ecc|BdB AGF|fda eca|dB^g a2 a/-=g/|
|fdd ecc|BdB AGF|AFF dFF|D>ED D2:|


